imtoken.svg

<svg width="167" height="67" viewBox="0 0 167 67" fill="none" xmlns="http://www.w3.org/2000/svg">
<path d="M55.441 26.1088C56.1667 35.9382 49.8484 40.584 44.1842 41.0795C38.9181 41.54 33.9612 38.3042 33.5264 33.3327C33.1676 29.2253 35.7062 27.4767 37.7007 27.3024C39.7521 27.1226 41.4759 28.5373 41.6254 30.2501C41.7695 31.8969 40.742 32.6464 40.0273 32.7088C39.4621 32.7584 38.7511 32.4152 38.6869 31.6785C38.6319 31.0455 38.8722 30.9593 38.8135 30.2868C38.7089 29.0896 37.6649 28.9501 37.0933 28.9996C36.4016 29.0602 35.1465 29.8675 35.3227 31.8785C35.4998 33.907 37.4447 35.5097 39.9943 35.2868C42.7456 35.0464 44.6612 32.9042 44.8053 29.8996C44.804 29.7405 44.8375 29.583 44.9034 29.4382L44.9043 29.4345C44.934 29.3716 44.9687 29.3111 45.008 29.2538C45.0667 29.1657 45.142 29.0685 45.2392 28.962C45.2401 28.9593 45.2401 28.9593 45.242 28.9593C45.3126 28.8795 45.3979 28.7932 45.4943 28.7006C46.6961 27.5666 51.0245 24.8923 55.1181 25.7391C55.2046 25.7576 55.2828 25.8037 55.341 25.8703C55.3992 25.9369 55.4343 26.0206 55.441 26.1088Z" fill="url(#paint0_linear)"/>
<path d="M65.9797 30.3213H64.1081C64.0721 30.3213 64.043 30.3505 64.043 30.3864V39.7323C64.043 39.7683 64.0721 39.7974 64.1081 39.7974H65.9797C66.0156 39.7974 66.0448 39.7683 66.0448 39.7323V30.3864C66.0448 30.3505 66.0156 30.3213 65.9797 30.3213Z" fill="white"/>
<path d="M92.6225 26.9745V28.4479C92.622 28.4646 92.615 28.4805 92.603 28.4921C92.591 28.5038 92.575 28.5103 92.5582 28.5103H88.7638C88.7469 28.51 88.7306 28.5164 88.7184 28.5281C88.7062 28.5398 88.6991 28.5558 88.6986 28.5727V39.7378C88.6984 39.7462 88.6965 39.7545 88.693 39.7623C88.6896 39.77 88.6847 39.7769 88.6785 39.7827C88.6724 39.7885 88.6652 39.793 88.6573 39.796C88.6494 39.799 88.641 39.8004 88.6326 39.8002H86.6766C86.6599 39.8005 86.6437 39.7942 86.6315 39.7827C86.6194 39.7712 86.6122 39.7554 86.6115 39.7387V28.5727C86.611 28.5558 86.6039 28.5398 86.5917 28.5281C86.5795 28.5164 86.5632 28.51 86.5463 28.5103H82.4096C82.3929 28.5103 82.3768 28.5038 82.3649 28.4921C82.3529 28.4805 82.3459 28.4646 82.3454 28.4479V26.9745C82.3459 26.9578 82.3529 26.9419 82.3649 26.9303C82.3768 26.9186 82.3929 26.9121 82.4096 26.9121H92.5518C92.5702 26.9112 92.5885 26.9167 92.6014 26.9286C92.6079 26.9344 92.6132 26.9414 92.6168 26.9493C92.6205 26.9572 92.6224 26.9658 92.6225 26.9745ZM82.9316 33.7543L82.9518 33.758V39.7378C82.9513 39.7545 82.9444 39.7704 82.9324 39.782C82.9204 39.7937 82.9043 39.8002 82.8876 39.8002H81.061C81.0526 39.8004 81.0442 39.799 81.0363 39.796C81.0284 39.793 81.0212 39.7885 81.015 39.7827C81.0089 39.7769 81.004 39.77 81.0005 39.7623C80.9971 39.7545 80.9952 39.7462 80.9949 39.7378V35.1516C80.9949 34.9571 80.9986 34.7617 80.9986 34.5699C80.9986 34.4708 80.9986 34.3754 80.9949 34.2791C80.9949 34.0011 80.9766 33.7231 80.9399 33.4461C80.8023 32.4497 80.3959 31.7268 78.9509 31.7461C78.5328 31.7596 78.1235 31.8701 77.7555 32.069C77.3271 32.3185 76.8518 32.6653 76.5849 33.1488C76.6273 33.4676 76.6491 33.7887 76.65 34.1103V34.1204C76.65 34.1736 76.6537 34.2268 76.6537 34.2763V39.869C76.6532 39.8859 76.6461 39.9019 76.6339 39.9136C76.6217 39.9252 76.6054 39.9316 76.5885 39.9314H74.806C74.7891 39.9316 74.7728 39.9252 74.7606 39.9136C74.7484 39.9019 74.7413 39.8859 74.7408 39.869V35.1461C74.7408 34.1048 74.7959 33.0204 74.2803 32.3488C73.9683 31.9461 73.5252 31.7571 72.6601 31.7571C72.3069 31.7571 71.8463 31.8818 71.4931 32.0507C71.2509 32.1635 71.0252 32.3057 70.8216 32.4745C70.5307 32.7314 70.3188 33.0626 70.3188 33.4396V39.7406C70.3183 39.7573 70.3113 39.7731 70.2994 39.7848C70.2874 39.7964 70.2713 39.803 70.2546 39.8029H68.4353C68.4186 39.803 68.4025 39.7964 68.3905 39.7848C68.3785 39.7731 68.3716 39.7573 68.3711 39.7406V30.4451C68.3716 30.4284 68.3785 30.4126 68.3905 30.4009C68.4025 30.3893 68.4186 30.3828 68.4353 30.3828H69.2014C69.5115 30.3828 69.7839 30.5773 69.8711 30.8617L69.9867 31.2378C69.9867 31.2635 70.0032 31.2855 70.0271 31.2947C70.0518 31.3039 70.0794 31.2984 70.0977 31.2818C70.9078 30.5176 72.0674 30.1534 73.1922 30.1534C74.3592 30.1534 75.1142 30.5048 75.605 31.0534L75.5537 30.9874C75.7041 31.158 75.8353 31.3424 75.9445 31.5387C75.9497 31.5483 75.9572 31.5565 75.9663 31.5625C75.9754 31.5685 75.9858 31.5722 75.9966 31.5733C76.0075 31.5744 76.0184 31.5728 76.0285 31.5687C76.0386 31.5646 76.0476 31.5581 76.0546 31.5497C76.7931 30.6635 78.2509 30.1543 79.4243 30.1543C82.0977 30.1543 82.9381 31.9727 82.9381 33.7507L82.9307 33.7543H82.9316ZM112.814 39.8158H110.829C110.819 39.8158 110.809 39.8135 110.8 39.809C110.791 39.8046 110.783 39.7981 110.777 39.7901C110.028 38.7974 109.472 37.8378 109.226 37.5351L109.181 37.48C108.773 36.9736 107.933 35.9075 106.781 35.7066C106.771 35.7051 106.76 35.7059 106.751 35.7091C106.741 35.7123 106.732 35.7177 106.724 35.725L105.876 36.6002C105.87 36.6058 105.865 36.6125 105.862 36.6199C105.859 36.6273 105.857 36.6353 105.857 36.6433V39.7369C105.857 39.7536 105.849 39.7694 105.837 39.7809C105.825 39.7923 105.809 39.7986 105.792 39.7984H103.944C103.928 39.7984 103.912 39.792 103.9 39.7805C103.888 39.7691 103.881 39.7534 103.88 39.7369V26.7626C103.881 26.7459 103.888 26.73 103.9 26.7184C103.912 26.7067 103.928 26.7002 103.944 26.7002H105.792C105.829 26.7002 105.857 26.7277 105.857 26.7626V34.2341C105.858 34.2589 105.874 34.28 105.898 34.2892C105.922 34.2984 105.948 34.2947 105.967 34.2782L110.032 30.2039C110.044 30.1921 110.06 30.1856 110.078 30.1855H112.257C112.283 30.1864 112.305 30.2011 112.315 30.224C112.32 30.235 112.321 30.2471 112.319 30.2589C112.317 30.2706 112.311 30.2815 112.303 30.2901L108.152 34.4277C108.145 34.4347 108.14 34.4433 108.137 34.4527C108.134 34.4622 108.133 34.4722 108.135 34.4818C108.139 34.5002 108.152 34.5176 108.17 34.5259C109.367 35.0754 110.197 36.1039 110.583 36.5818L110.626 36.636C110.956 37.0433 112.057 38.6424 112.871 39.7231C112.877 39.7324 112.88 39.743 112.88 39.7539C112.88 39.7647 112.877 39.7753 112.871 39.7846C112.865 39.794 112.857 39.8018 112.848 39.8072C112.838 39.8127 112.827 39.8156 112.816 39.8158H112.814Z" fill="white"/>
<path d="M65.0421 28.8109C65.7104 28.8109 66.2522 28.2934 66.2522 27.655C66.2522 27.0166 65.7104 26.499 65.0421 26.499C64.3738 26.499 63.832 27.0166 63.832 27.655C63.832 28.2934 64.3738 28.8109 65.0421 28.8109Z" fill="white"/>
<path d="M97.1413 29.9141C94.2541 29.9141 92.3633 31.7517 92.3633 34.8866C92.3633 38.0334 94.2624 39.86 97.1413 39.86C100.019 39.86 101.917 38.0325 101.917 34.8875C101.917 31.7572 100.012 29.9141 97.1413 29.9141ZM97.1413 38.3022C95.1908 38.3022 94.255 37.0242 94.255 34.793C94.255 32.5747 95.1908 31.4701 97.1413 31.4701C99.0917 31.4701 100.021 32.6664 100.021 34.8848C100.021 37.104 99.0853 38.3022 97.1413 38.3022ZM118.545 38.426C117.501 38.5664 116.463 38.1325 115.862 37.3049C115.541 36.8921 115.372 36.4132 115.257 35.7848C115.256 35.7767 115.256 35.7685 115.258 35.7606C115.26 35.7527 115.264 35.7453 115.269 35.7389C115.279 35.7255 115.294 35.7167 115.311 35.7141L120.584 35.0031C122.03 34.7994 122.635 33.5508 122.089 32.3462C121.591 31.3412 120.731 30.562 119.682 30.1655C118.25 29.6114 116.325 29.9352 115.298 30.7526C113.928 31.8444 113.461 33.1572 113.388 34.5526C113.379 34.7086 113.375 34.8646 113.375 35.0205C113.375 35.3435 113.403 35.6655 113.46 35.9838C113.821 38.0756 115.358 39.9967 117.932 40.0059C120.846 40.015 122.222 38.3233 122.458 37.0554C122.459 37.0458 122.458 37.0361 122.455 37.027C122.452 37.0179 122.446 37.0097 122.439 37.0031C122.432 36.9961 122.424 36.9908 122.414 36.9877C122.404 36.9845 122.394 36.9835 122.384 36.9848L120.568 37.2536C120.558 37.2553 120.55 37.259 120.542 37.2644C120.534 37.2698 120.527 37.2767 120.522 37.2848C120.023 37.9774 119.442 38.2939 118.545 38.426ZM115.82 32.4958C116.073 32.187 116.386 31.9336 116.741 31.7514C117.096 31.5693 117.484 31.4622 117.883 31.437C118.704 31.371 119.369 31.482 119.952 32.0334C120.161 32.2297 120.339 32.4554 120.479 32.7013C120.69 33.0646 120.466 33.593 119.988 33.6581L115.184 34.3022C115.175 34.3037 115.165 34.303 115.155 34.3001C115.145 34.2973 115.137 34.2923 115.129 34.2857C115.123 34.2792 115.117 34.2713 115.114 34.2626C115.111 34.2538 115.11 34.2445 115.111 34.2352C115.194 33.5251 115.416 33.0022 115.82 32.4958ZM132.648 33.9288V39.7352C132.647 39.7519 132.64 39.7678 132.628 39.7794C132.616 39.7911 132.6 39.7976 132.583 39.7976H130.772C130.764 39.7978 130.756 39.7964 130.748 39.7934C130.74 39.7904 130.733 39.7859 130.726 39.7801C130.72 39.7743 130.715 39.7674 130.712 39.7597C130.709 39.752 130.707 39.7436 130.706 39.7352V34.9086C130.706 34.9086 130.729 34.0939 130.661 33.3343C130.611 32.8003 130.426 32.2829 130 31.9462C129.394 31.4655 128.538 31.5719 128.538 31.5719C127.474 31.682 126.558 32.3196 125.985 32.9627L125.952 33.0003L125.985 32.9866V39.7334C125.985 39.7502 125.978 39.7663 125.966 39.7779C125.953 39.7896 125.937 39.796 125.92 39.7958H124.104C124.095 39.796 124.087 39.7946 124.079 39.7916C124.071 39.7886 124.064 39.7841 124.058 39.7783C124.052 39.7725 124.047 39.7655 124.043 39.7578C124.04 39.7501 124.038 39.7418 124.038 39.7334V30.2591C124.038 30.2422 124.045 30.2262 124.057 30.2145C124.07 30.2028 124.086 30.1964 124.103 30.1967H125.594C125.63 30.1967 125.66 30.2242 125.66 30.2591V31.1875C125.66 31.2123 125.676 31.2334 125.701 31.2426C125.725 31.2517 125.751 31.2471 125.77 31.2297C126.539 30.4306 127.702 29.9499 128.92 29.9499C129.929 29.9517 132.647 29.9921 132.647 33.9288H132.648Z" fill="white"/>
<defs>
<linearGradient id="paint0_linear" x1="54.8829" y1="26.0109" x2="40.6393" y2="46.1723" gradientUnits="userSpaceOnUse">
<stop stop-color="white"/>
<stop offset="0.9999" stop-color="white"/>
<stop offset="1" stop-color="white"/>
</linearGradient>
</defs>
</svg>

<svg xmlns="http://www.w3.org/2000/svg" width="167" height="67" fill="none"><path d="M55.441 26.109c.726 9.829-5.593 14.475-11.257 14.971-5.266.46-10.223-2.775-10.658-7.747-.359-4.107 2.18-5.856 4.174-6.03 2.051-.18 3.775 1.235 3.925 2.948.144 1.647-.883 2.396-1.598 2.459-.565.05-1.276-.294-1.34-1.03-.055-.633.185-.719.127-1.392-.105-1.197-1.149-1.337-1.72-1.287-.692.061-1.947.868-1.771 2.879.177 2.028 2.122 3.631 4.672 3.408 2.751-.24 4.667-2.383 4.811-5.387a1.09 1.09 0 0 1 .098-.461l.001-.004c.03-.063.064-.123.104-.181.059-.088.134-.185.231-.292a4.72 4.72 0 0 1 .255-.261c1.202-1.134 5.53-3.808 9.624-2.962a.41.41 0 0 1 .323.37z" fill="url(#A)"/><path d="M65.98 30.321h-1.872c-.036 0-.065.029-.065.065v9.346c0 .036.029.065.065.065h1.872c.036 0 .065-.029.065-.065v-9.346c0-.036-.029-.065-.065-.065zm26.643-3.346v1.473c-.001.017-.008.033-.02.044s-.028.018-.045.018h-3.794c-.017 0-.033.006-.045.018s-.019.028-.02.045v11.165c0 .008-.002.017-.006.025s-.008.015-.014.02-.013.01-.021.013-.016.004-.025.004h-1.956c-.017 0-.033-.006-.045-.017s-.019-.027-.02-.044V28.573c-.001-.017-.008-.033-.02-.045s-.029-.018-.045-.018H82.41c-.017 0-.033-.007-.045-.018s-.019-.027-.02-.044v-1.473c.001-.017.008-.033.02-.044s.028-.018.045-.018h10.142c.018-.001.037.005.05.017.007.006.012.013.015.021s.006.017.006.025zm-9.691 6.78l.02.004v5.98c-.001.017-.007.033-.019.044s-.028.018-.045.018h-1.827c-.008 0-.017-.001-.025-.004s-.015-.008-.021-.013-.011-.013-.014-.02-.005-.016-.006-.025v-4.586l.004-.582-.004-.291a6.34 6.34 0 0 0-.055-.833c-.138-.996-.544-1.719-1.989-1.7a2.7 2.7 0 0 0-1.195.323c-.428.249-.904.596-1.171 1.08a7.45 7.45 0 0 1 .065.962v.01l.004.156v5.593c-.001.017-.008.033-.02.045s-.028.018-.045.018h-1.782c-.017 0-.033-.006-.045-.018s-.019-.028-.02-.045v-4.723c0-1.041.055-2.126-.46-2.797-.312-.403-.755-.592-1.62-.592-.353 0-.814.125-1.167.294-.242.113-.468.255-.671.424-.291.257-.503.588-.503.965v6.301c-.001.017-.007.032-.019.044s-.028.018-.045.018h-1.819c-.017 0-.033-.007-.045-.018s-.019-.027-.019-.044v-9.295c.001-.017.007-.032.019-.044s.028-.018.045-.018h.766c.31 0 .582.195.67.479l.116.376c0 .026.017.048.04.057s.052.004.071-.013c.81-.764 1.97-1.128 3.094-1.128 1.167 0 1.922.351 2.413.9l-.051-.066a3.15 3.15 0 0 1 .391.551c.005.01.013.018.022.024s.019.01.03.011.022 0 .032-.005.019-.011.026-.019c.739-.886 2.196-1.395 3.37-1.395 2.673 0 3.514 1.818 3.514 3.596l-.007.004h.001zm29.882 6.062h-1.985c-.01 0-.02-.002-.029-.007s-.017-.011-.023-.019l-1.551-2.255-.045-.055c-.408-.506-1.248-1.572-2.4-1.773-.01-.002-.021-.001-.03.002s-.019.009-.027.016l-.848.875c-.006.006-.011.012-.014.02s-.005.015-.005.023v3.094c0 .017-.008.032-.02.044s-.028.018-.045.017h-1.848c-.016 0-.032-.006-.044-.018s-.019-.027-.02-.044V26.763c.001-.017.008-.033.02-.044s.028-.018.044-.018h1.848c.037 0 .065.027.065.062v7.471c.001.025.017.046.041.055s.05.005.069-.011l4.065-4.074c.012-.012.028-.018.046-.018h2.179c.026.001.048.016.058.038a.06.06 0 0 1 .004.035c-.002.012-.008.023-.016.031l-4.151 4.138c-.007.007-.012.016-.015.025s-.004.02-.002.029c.004.018.017.036.035.044 1.197.55 2.027 1.578 2.413 2.056l.043.054c.33.407 1.431 2.006 2.245 3.087.006.009.009.02.009.031s-.003.021-.009.031-.014.017-.023.023-.021.008-.032.009h-.002zM65.042 28.811c.668 0 1.21-.518 1.21-1.156s-.542-1.156-1.21-1.156-1.21.518-1.21 1.156.542 1.156 1.21 1.156zm32.099 1.103c-2.887 0-4.778 1.838-4.778 4.973 0 3.147 1.899 4.973 4.778 4.973s4.776-1.828 4.776-4.972c0-3.13-1.905-4.973-4.776-4.973zm0 8.388c-1.951 0-2.886-1.278-2.886-3.509 0-2.218.936-3.323 2.886-3.323s2.88 1.196 2.88 3.415-.936 3.417-2.88 3.417zm21.404.124c-1.044.14-2.082-.294-2.683-1.121-.321-.413-.49-.892-.605-1.52-.001-.008-.001-.016.001-.024s.006-.015.011-.022c.01-.013.025-.022.042-.025l5.273-.711c1.446-.204 2.051-1.452 1.505-2.657a4.44 4.44 0 0 0-2.407-2.181c-1.432-.554-3.357-.23-4.384.587-1.37 1.092-1.837 2.405-1.91 3.8l-.013.468a5.46 5.46 0 0 0 .085.963c.361 2.092 1.898 4.013 4.472 4.022 2.914.009 4.29-1.683 4.526-2.95.001-.01 0-.019-.003-.028s-.009-.017-.016-.024-.015-.012-.025-.015-.02-.004-.03-.003l-1.816.269c-.01.002-.018.005-.026.011s-.015.012-.02.02c-.499.693-1.08 1.009-1.977 1.141zm-2.725-5.93a2.9 2.9 0 0 1 2.063-1.058c.821-.066 1.486.045 2.069.596a2.86 2.86 0 0 1 .527.668c.211.363-.013.892-.491.957l-4.804.644c-.009.002-.019.001-.029-.002s-.018-.008-.026-.014-.012-.014-.015-.023-.004-.018-.003-.027a3.21 3.21 0 0 1 .709-1.739zm16.828 1.433v5.806c-.001.017-.008.033-.02.044s-.028.018-.045.018h-1.811c-.008 0-.016-.001-.024-.004s-.015-.008-.022-.013-.011-.013-.014-.02-.005-.016-.006-.025v-4.827s.023-.815-.045-1.574c-.05-.534-.235-1.051-.661-1.388-.606-.481-1.462-.374-1.462-.374-1.064.11-1.98.748-2.553 1.391l-.033.038.033-.014v6.747c0 .017-.007.033-.019.044a.07.07 0 0 1-.046.018h-1.816c-.009 0-.017-.001-.025-.004s-.015-.008-.021-.013-.011-.013-.015-.02-.005-.016-.005-.024v-9.474c0-.017.007-.033.019-.045s.029-.018.046-.018h1.491c.036 0 .066.027.066.062v.928c0 .025.016.046.041.055s.05.005.069-.013c.769-.799 1.932-1.28 3.15-1.28 1.009.002 3.727.042 3.727 3.979h.001z" fill="#000"/><defs><linearGradient id="A" x1="54.883" y1="26.011" x2="40.639" y2="46.172" gradientUnits="userSpaceOnUse"><stop stop-color="#000"/></linearGradient></defs></svg>
